X:1     %Music
T:The Drummer and the Cook
B:Singing Together, Spring 1972, BBC Publications
F:http://www.folkinfo.org/songs
M:4/4     %Meter
L:1/8     %
K:F
CC |FF FF FF FF |GF GA F2 
w:Oh there was a lit-tle drum-mer and he loved a one-eyed cook, 
FF |BB BB AA AA | GF ED C2 
w:And he loved her, O he loved her though she had a cock-eyed look,
 DE |FF FF F2 FF |DD GF EC 
w: With her one eye in the pot, And the t'oth-er up the chim-ney, 
DE |F2 F2 F2 z2 |c2 de fc dB |A2 G2 F2 z2 |]
w:With a Bow-wow-wow, Fal-lal the dow-a-did-dy Bow-wow-wow